X:195
T: IM KELLER IM KELLER ISTS FINSTER
N: K2512
O: Europa, Mitteleuropa, Deutschland
R: Kinder - Lied, Such - Spiel
M: 2/4
L: 1/16
K: G
D2 | GGG2GGB2 | G4D2
D2 | GGG2GGB2 | G4D2
D2 | G2G2GGB2 | G2G2D2
D2 | G2GGGGB2 | G2G2D2z2 | d2z6

@@@ Tune index: 7532
